icon-themes/colibre_svg/cmd/lc_starshapes.star24.svg

<?xml-stylesheet type="text/css" href="icons.css" ?>
<svg viewBox="0 0 24 24" xmlns="http://www.w3.org/2000/svg">
  <path
	 class="icn icn--shape-color"
     d="m 12,2.5 -0.630859,4.7871094 -1.8183598,-4.453 0.6308598,4.7871094 -2.931641,-3.8594 1.8554688,4.453 -3.8222657,-2.9316407 2.9316407,3.8222657 -4.453,-1.8554688 3.8594,2.931641 -4.7871094,-0.6308598 3.3594,1.3710938 c 0.3940116,-0.275956 0.821736,-0.504745 1.2890625,-0.650391 0.5656763,-0.182034 1.1652894,-0.271484 1.7851562,-0.271484 0.6536177,0 1.2774169,0.099036 1.8535159,0.308594 0.570975,0.19975 1.086787,0.498187 1.515625,0.894531 0.255877,0.233155 0.467515,0.506179 0.654297,0.797 h 2.271484 2.058594 l 0.345703,-0.47 -1.253906,-0.166015 1.97,-0.804688 c 0.141265,-0.05272 0.845953,-0.367248 1.074218,-0.439457 l 1.40625,-0.5742188 -4.78711,0.6308598 3.8594,-2.931641 -4.453,1.8554688 2.931641,-3.8222657 -3.822266,2.9316407 1.855469,-4.453 -2.931641,3.8594 0.63086,-4.7871094 -1.81836,4.453 z M 5.4082031,11.617188 2.5,12 4.9023438,12.316406 c 0.14949,-0.250778 0.3173201,-0.484288 0.5058593,-0.699218 z m -1.1074219,2.232421 -1.4667968,0.59961 1.3691406,-0.179688 c 0.023838,-0.145559 0.06512,-0.279782 0.097656,-0.419922 z M 5.3867188,15.515625 3.7617188,16.75 6.375,15.660156 c -0.062455,-0.0068 -0.1280944,2.75e-4 -0.1894531,-0.0098 -0.2658551,-0.04307 -0.532772,-0.08953 -0.7988281,-0.134731 z"
     fill="#fafafa"
	 stroke="#3a3a38"
	 stroke-linecap="round"
	 stroke-linejoin="round"
     />
  <path
	 class="icn icn--highlight-color"
     d="m 9.2675781,11 c -1.4119851,0.03079 -2.8168019,0.46711 -3.59375,1.957031 -0.2366026,0.42889 -0.4011865,0.931955 -0.4921875,1.509766 l 1.1660156,0.197265 c 0.2912033,0.04766 0.5178388,0.02871 0.6816407,-0.05466 0.1698685,-0.08342 0.3033229,-0.261168 0.4004031,-0.535181 0.3165409,-0.869856 0.7598622,-1.258874 1.7011594,-1.269531 0.5096056,-1e-6 0.9045236,0.139951 1.1835936,0.419921 0.27907,0.27997 0.417969,0.694161 0.417969,1.242188 0,0.303797 -0.03832,0.59503 -0.117188,0.875 -0.07887,0.274013 -0.197733,0.548252 -0.355468,0.822265 C 10.108098,16.432119 9.9180363,16.704502 9.7,16.978516 9.4630309,17.252529 9.2015668,17.539952 8.9042969,17.84375 L 5.390625,21.392578 C 4.9969842,21.863294 5,22.357478 5,23 h 8.172 v -1.287109 c 0,-0.214445 -0.07327,-0.386529 -0.219,-0.517579 -0.13941,-0.13105 -0.324027,-0.197265 -0.554562,-0.197265 -1.369314,-0.01477 -2.9289073,0.02015 -4.0549318,0.0328 l 2.2990718,-2.409756 c 1.193339,-1.186623 2.372259,-2.817174 2.347656,-4.216797 0,-0.506329 -0.09144,-0.967789 -0.273437,-1.384766 C 12.101892,11.480328 10.874176,11.046751 9.2675781,11 Z M 19.515625,11.125 13.97,18.603516 c -0.0094,0.523327 0.200723,1.155005 0.440156,1.421875 0.115268,0.08339 0.241325,0.125 0.38086,0.125 h 4.90625 V 23 h 1.910156 v -2.849609 h 0.947266 c 0.139534,0 0.247303,-0.04161 0.326171,-0.125 C 22.959727,19.941995 23,19.83984 23,19.720703 V 18.488281 H 21.607422 V 11.125 Z m 0.188544,2.715333 c 0.02701,1.6147 -0.0069,2.989323 -0.0069,4.647948 h -3.414063 z"
     fill="#83beec"
	 stroke="#1e8bcd"
	 stroke-linecap="round"
	 stroke-linejoin="round"
     />
</svg>

<?xml-stylesheet type="text/css" href="icons.css" ?>
<svg viewBox="0 0 24 24" xmlns="http://www.w3.org/2000/svg">
  <path
	 class="icn icn--shape-color" 
     d="m12 2.5-.630859 4.7871094-1.8183598-4.453.6308598 4.7871094-2.931641-3.8594 1.8554688 4.453-3.8222657-2.9316407 2.9316407 3.8222657-4.453-1.8554688 3.8594 2.931641-4.7871094-.6308598 3.3594 1.3710938c.3940116-.275956.821736-.504745 1.2890625-.650391.5656763-.182034 1.1652894-.271484 1.7851562-.271484.6536177 0 1.2774169.099036 1.8535159.308594.570975.19975 1.086787.498187 1.515625.894531.255877.233155.467515.506179.654297.797h2.271484 2.058594l.345703-.47-1.253906-.166015 1.97-.804688.025391-.035156a1.0001 1.0001 0 0 1 .804687-.404297h.244141l1.40625-.5742188-4.78711.6308598 3.8594-2.931641-4.453 1.8554688 2.931641-3.8222657-3.822266 2.9316407 1.855469-4.453-2.931641 3.8594.63086-4.7871094-1.81836 4.453zm-6.5917969 9.117188-2.9082031.382812 2.4023438.316406c.14949-.250778.3173201-.484288.5058593-.699218zm1.3476563 1.568359c-.0638636.090675-.145256.143643-.203.25a1.0001 1.0001 0 0 1 -.0063.006c-.033581.060873-.0437787.165362-.0742187.232422l.0351562.005859c.022524.0033-.0067013.00476.0097656.00586.0604656-.174276.1440652-.338296.2363282-.5zm-.1679688.527344c-.023185.0114.000697-.007134-.015625.006-.00559.002703.0102763-.001247.0063.001953a1.0001 1.0001 0 0 1 .0117187-.005859zm-.0957031.02539c.0024-.0-.0085794.009653-.0058594.001953l-.0136719.041016c.0046141-.0151.0146713-.027949.0195313-.042969zm-2.1914063.111328-1.4667968.59961 1.3691406-.179688c.0238379-.145559.0651202-.279782.0976562-.419922zm4.1367188.40625c-.0162972.036239-.038504.069192-.0507812.109375a1.0001 1.0001 0 0 1 -.0136719.042969c-.0640686.18086-.1559651.363911-.2734375.535156l.1152344-.048828-2.9316407 3.822266 3.1542969-2.419922zm-3.0507812 1.259766-1.625 1.234375 2.6132812-1.089844c-.062455-.006793-.1280944.000275-.1894531-.009765a1.0001 1.0001 0 0 1 -.0058594 0z"
     fill="#fafafa" 
	 stroke="#3a3a38" 
	 stroke-linecap="round" 
	 stroke-linejoin="miter"
     />
  <path
	 id="HighlightColor" 
     d="M 9.2675781 11 C 8.7397723 11 8.246228 11.073736 7.7851562 11.222656 C 7.3240844 11.36562 6.9145779 11.583117 6.5566406 11.875 C 6.2047701 12.160927 5.9104307 12.522183 5.6738281 12.957031 C 5.4372255 13.385921 5.2726416 13.888986 5.1816406 14.466797 L 6.3476562 14.664062 C 6.6388595 14.711718 6.865495 14.69277 7.0292969 14.6094 C 7.1991654 14.52598 7.3326198 14.348232 7.4297 14.074219 C 7.4842882 13.895515 7.5628812 13.729097 7.6660156 13.574219 C 7.7691501 13.419342 7.8934609 13.285055 8.0390625 13.172 C 8.1846641 13.058698 8.349248 12.96787 8.53 12.902344 C 8.7132521 12.836817 8.912457 12.804687 9.1308594 12.804688 C 9.640465 12.804687 10.035383 12.944639 10.314453 13.224609 C 10.593523 13.504579 10.732422 13.91877 10.732422 14.466797 C 10.732422 14.770594 10.694102 15.061827 10.615234 15.341797 C 10.536367 15.61581 10.417501 15.890049 10.259766 16.164062 C 10.108098 16.432119 9.9180363 16.704502 9.7 16.978516 C 9.4630309 17.252529 9.2015668 17.539952 8.9042969 17.84375 L 5.390625 21.392578 C 5.2450234 21.529584 5.1426986 21.677057 5.0820312 21.837891 C 5.0274306 21.992768 5 22.138384 5 22.275391 L 5 23 L 13.172 23 L 13.172 21.712891 C 13.172 21.498446 13.098727 21.326362 12.953 21.195312 C 12.81359 21.064262 12.628973 20.998047 12.398438 20.998047 L 9.6601562 20.998047 C 9.4235536 20.998047 9.1675343 21.022659 8.8945312 21.070312 C 8.6215283 21.11201 8.3491749 21.174417 8.0761719 21.257812 L 10.642578 18.621094 C 10.958049 18.299426 11.257833 17.981727 11.542969 17.666016 C 11.828105 17.344348 12.076727 17.017176 12.289062 16.683594 C 12.501398 16.344056 12.671427 15.988463 12.798828 15.619141 C 12.926229 15.243861 12.990234 14.839144 12.990234 14.404297 C 12.990234 13.897968 12.898798 13.436508 12.716797 13.019531 C 12.540861 12.596598 12.288541 12.235341 11.960938 11.9375 C 11.639401 11.639659 11.248181 11.410833 10.787109 11.25 C 10.332104 11.083209 9.8257173 11 9.2675781 11 z M 19.515625 11.125 L 13.97 18.603516 L 14.201172 19.685547 C 14.231505 19.822553 14.300955 19.936038 14.410156 20.025391 C 14.525424 20.108786 14.651481 20.150391 14.791016 20.150391 L 19.697266 20.150391 L 19.697266 23 L 21.607422 23 L 21.607422 20.150391 L 22.554688 20.150391 C 22.694222 20.150391 22.801991 20.108786 22.880859 20.025391 C 22.959727 19.941995 23 19.83984 23 19.720703 L 23 18.488281 L 21.607422 18.488281 L 21.607422 11.125 L 19.515625 11.125 z M 19.769531 13.609375 C 19.739198 13.829778 19.717211 14.043465 19.705078 14.251953 C 19.699011 14.454484 19.697266 14.641705 19.697266 14.814453 L 19.697266 18.488281 L 16.283203 18.488281 L 19.769531 13.609375 z "
     fill="#1e8bcd" 
     />
</svg>
